X:1
T:Title
%%score { ( 1 4 5 ) | ( 2 3 ) }
L:1/8
Q:1/4=100
M:4/4
K:C
V:1 treble nm="Grand Piano"
V:4 treble 
V:5 treble 
V:2 bass 
V:3 bass 
V:1
 [EG]3 [_E^F] [=EG]2 [=FA]2 | [FA]2 [EG]2 [CE] [EG]3 | A3 ^G A2 [Ac]2 | [Ac][GB] [FA]2 [EG]4 | %4
w: James~McGranahan * * *||||
 [EG]3 [_E^F] [=EG]2 [=FA]2 | [FA]2 [EG]2 [CE] [EG]3 | [FA]3 [FB] [Ec]2 [Fd][Ec] | %7
w: |||
 [DB]3 [C^FA] [B,G]4 | (3[CE-G-][CE-G-][CE-G-] [EG]2- [EG]/^FG/ (3AGE | [Ec]6 z2 | %10
w: |||
 G2 B>A [DEG]2 [G,DF]>[G,B,D] | [G,DF]2 [G,CE]4 z2 | [EG]6 z2 | [Ge]6 z2 | G2 c>d e2 (3cde | %15
w: |||||
 d4 z4 |] %16
w: |
V:2
 [C,C]3 [C,C] [C,C]2 [C,C]2 | [C,C]2 [C,C]2 [C,G,] [C,C]3 | [F,CF]3 [F,CF] [F,CF]2 [F,C]2 | %3
 [C,C]2 [C,C]2 [C,C]4 | [C,C]3 [C,C] [C,C]2 [C,C]2 | [C,C]2 [C,C]2 [C,G,] [C,C]3 | z4 z2 G,2 | %7
 [D,G,]3 D, z2 F2 | (3C,E,G, (3C,C,C, (3z[K:treble] _E=E (3FEC | %9
 (3[C,G,]E,G, (3CG,E, (3C,[C,G,][C,G,][K:treble] (3[F,A,F][F,A,F][F,CF] | %10
 [G,CE]2 [G,G]>[G,F][K:bass] G,,2 G,,>G,, | C,2 C,4 z2 | %12
 (3C,E,G, (3C,C,C, (3z[K:treble] _E=E (3FEC | %13
 (3[C,C]E,G, (3CG,E, (3C,[G,CG][E,C] (3[C,_B,][D,B,][E,B,] | %14
 [G,CE]2 [G,CE]>[G,B,F] [G,CG]2 (3[G,-E][G,F][G,G] | B,2 z2 [C,G,]4 |] %16
V:3
 x8 | x8 | x8 | x8 | x8 | x8 | [F,C]3 [D,G,] [C,G,]2 B,,C, | z4 G,,4 | x14/3[K:treble] x10/3 | %9
 x6[K:treble] x2 | x4[K:bass] x4 | x8 | x14/3[K:treble] x10/3 | x8 | x8 | [G,,F]4 z4 |] %16
V:4
 x8 | x8 | x8 | x8 | x8 | x8 | x8 | x8 | z2 (3CCC z4 | z4 (3G,[Fd][Ge] z2 | x8 | x8 | %12
 (3CCC z2 z/ ^FG/ (3AGE | z4 (3Cd[Gc] z2 | x8 | z2 A,G, [Ec]4 |] %16
V:5
 x8 | x8 | x8 | x8 | x8 | x8 | x8 | x8 | x8 | (7:8:6z/ G, z/ z/4 C3/4G,/ z2 (3dcA | x8 | x8 | %12
 z2 (3CCC z4 | (7:8:7z/ C3/4C/ z/4 z/4 C3/4C/ z2 (3[Gd][Fc][FA] | x8 | x8 |] %16

